X:1477
T:More Power to your Elbow
R:reel
N:"collected from O'Reilly"
B:"O'Neill's Dance Music of Ireland, 1477"
T: co.ma.cd's tuile le do uilleann
Z:transcribed by John B. Walsh, 8/22/96
M:C|
L:1/8
K:G
(GE)|DGGB AGGB|dGBG AGEG|DGGB AGGg|dgdB AGEG|
DGGB AGGB|dGBG AGEG|DGGB AGGg|dgdB G2||
(ef)|g2 (ge) dgge|dBGB (AG) E2|g2 (ge) degb|agab a2 (ga)|
bagb ageg|dGBG AGEG|DGGB AGGg|egdB G2||


